icons-rebrand/svg/archive-regular.svg

<svg width="32" height="32" viewBox="0 0 32 32" fill="none" xmlns="http://www.w3.org/2000/svg">
<path d="M25.03 8.25595H7.01C6.2809 8.25675 5.58189 8.54673 5.06633 9.06229C4.55078 9.57784 4.26079 10.2769 4.26 11.006V23C4.26159 24.2592 4.76254 25.4665 5.653 26.357C6.54345 27.2474 7.75071 27.7484 9.01 27.75H23.03C24.2893 27.7484 25.4965 27.2474 26.387 26.357C27.2775 25.4665 27.7784 24.2592 27.78 23V11.006C27.7792 10.2769 27.4892 9.57784 26.9737 9.06229C26.4581 8.54673 25.7591 8.25675 25.03 8.25595ZM26.28 23C26.2789 23.8616 25.9362 24.6876 25.3269 25.2969C24.7177 25.9061 23.8916 26.2489 23.03 26.25H9.009C8.1472 26.2492 7.32091 25.9065 6.71143 25.2972C6.10195 24.6879 5.75906 23.8618 5.758 23V11.006C5.75826 10.6745 5.89005 10.3567 6.12441 10.1224C6.35877 9.888 6.67656 9.75622 7.008 9.75595H25.031C25.3624 9.75622 25.6802 9.888 25.9146 10.1224C26.149 10.3567 26.2807 10.6745 26.281 11.006V23H26.28ZM5 5.75195H27C27.1989 5.75195 27.3897 5.67294 27.5303 5.53228C27.671 5.39163 27.75 5.20087 27.75 5.00195C27.75 4.80304 27.671 4.61228 27.5303 4.47162C27.3897 4.33097 27.1989 4.25195 27 4.25195H5C4.80109 4.25195 4.61032 4.33097 4.46967 4.47162C4.32902 4.61228 4.25 4.80304 4.25 5.00195C4.25 5.20087 4.32902 5.39163 4.46967 5.53228C4.61032 5.67294 4.80109 5.75195 5 5.75195Z" fill="#0F0F0F"/>
<path d="M20.9999 12.25H10.9999C10.801 12.25 10.6102 12.329 10.4696 12.4697C10.3289 12.6103 10.2499 12.8011 10.2499 13C10.2376 13.7096 10.4021 14.4112 10.7285 15.0414C11.055 15.6716 11.5332 16.2107 12.1199 16.61C13.2593 17.3764 14.607 17.7734 15.9799 17.747C18.8459 17.747 21.7499 16.117 21.7499 13C21.7499 12.8011 21.6709 12.6103 21.5302 12.4697C21.3896 12.329 21.1988 12.25 20.9999 12.25ZM15.9799 16.247C14.9196 16.2696 13.8773 15.9708 12.9899 15.39C12.4169 15.0038 12.0064 14.4199 11.8369 13.75H20.1589C19.7209 15.46 17.7889 16.247 15.9799 16.247Z" fill="#0F0F0F"/>
</svg>

<svg width="32" height="32" viewBox="0 0 32 32" fill="none" xmlns="http://www.w3.org/2000/svg"><path d="M25.03 8.256H7.01a2.753 2.753 0 0 0-2.75 2.75V23a4.756 4.756 0 0 0 4.75 4.75H23.03A4.756 4.756 0 0 0 27.78 23V11.006a2.753 2.753 0 0 0-2.75-2.75zM26.28 23a3.254 3.254 0 0 1-3.25 3.25H9.009A3.254 3.254 0 0 1 5.758 23V11.006a1.251 1.251 0 0 1 1.25-1.25h18.023a1.251 1.251 0 0 1 1.25 1.25V23zM5 5.752h22a.75.75 0 1 0 0-1.5H5a.75.75 0 0 0 0 1.5z" fill="#0F0F0F"/><path d="M21 12.25H11a.75.75 0 0 0-.75.75 4.277 4.277 0 0 0 1.87 3.61 6.685 6.685 0 0 0 3.86 1.137c2.866 0 5.77-1.63 5.77-4.747a.75.75 0 0 0-.75-.75zm-5.02 3.997a5.255 5.255 0 0 1-2.99-.857 2.809 2.809 0 0 1-1.153-1.64h8.322c-.438 1.71-2.37 2.497-4.179 2.497z" fill="#0F0F0F"/></svg>
